X:1
T:Glen Lyon
M:4/4
L:1/8
R:Reel
C:Trad., as played by Seudan
Q:100
K:HP
f | {g}A{d}AdG {g}A{d}A{e}Ag | {a}fA{gef}eA {gde}dB{g}G{d}B | {g}A{d}AdG {g}A{d}A{e}Ag {a} | fA{gef}eA d{g}d{c}d:|
|: g | {a}fdgf {gef}ec{G}cg | {a}fdge {g}fdge | {g}fdgf {gef}ec{G}cg |1 af{g}ge d{g}d{c}d:|
|2 af{a}ge {g}fd{gef}ec |

